X: 1
T: President Garfield's Hornpipe  v.1
P: piffero primo a0500
O: cfg bk 1
R: hornpipe, reel
F: http://ancients.sudburymuster.org/mus/ssp/pdf/garfieldF.pdf
Z: 2019 John Chambers <jc:trillian.mit.edu>
M: 2/4
L: 1/16
K: D
fe |\
dAFA dAFA | dcde fefg | aece aece | a^gab a=gfe | dAFA dAFA |
dcde fefg | a^gab a=gfe | d2f2 d2 :: dc | BgdB GBdB | AfdA FAdA |
GCBA GCBA | FDBA FDdc | BgdB GBdB | AfdA FAdA | ^GAcB A=GFE | D2F2 D2 :|


